icons/paragraph.svg

<svg xmlns="http://www.w3.org/2000/svg" width="24" height="24" fill="none"><g clip-path="url(#a)"><g><path fill="#121212" d="M12 6V21H10V16C8.4087 16 6.88258 15.3679 5.75736 14.2426C4.63214 13.1174 4 11.5913 4 10C4 8.4087 4.63214 6.88258 5.75736 5.75736C6.88258 4.63214 8.4087 4 10 4H20V6H17V21H15V6H12ZM10 6C8.93913 6 7.92172 6.42143 7.17157 7.17157C6.42143 7.92172 6 8.93913 6 10C6 11.0609 6.42143 12.0783 7.17157 12.8284C7.92172 13.5786 8.93913 14 10 14V6Z"/></g></g><defs><clipPath id="a"><rect width="24" height="24" fill="white"/></clipPath></defs></svg>

<svg width="24" height="24" fill="none" xmlns="http://www.w3.org/2000/svg"><g clip-path="url(#a)"><path d="M12 6v15h-2v-5a6 6 0 1 1 0-12h10v2h-3v15h-2V6h-3Zm-2 0a4 4 0 0 0 0 8V6Z" /></g><defs><clipPath id="a"><path fill="#fff" d="M0 0h24v24H0z"/></clipPath></defs></svg>
